X:2864
T:Hedning Polska
S:Älvdalspolska efter Ekor Anders
S:Efter Jonas "Jalle" Hjalmarsson
Z:[[http://www.bluerose.karenlmyers.org/IncipitsPolskaAlvdalen4.html|Karen Myers (#2864)]]
Z:Upptecknad 6/2006
M:3/4
L:1/8
R:Polska
O:Älvdalen, Dalarna
K:G
D>E FG A>c | (Be) d4 | ((3[G,Ec]dc) ((3BcB) A>G | ((3ABA) GG/F/ D2- |
D>E FG A>c | (Be) d4 | ((3[G,Ec]dc) ((3BcB) A>G | ((3ABA) G4 :|
|: D>b a2 g2 | ((3faf) (dA) d2- | d>b a2 g2 | ((3fgf) ((3efe) d2 |
uf>e dd cA | cB GG (Bc) | e2 d4 | ((3[G,Ec]dc) ((3BcB) A>G | ((3ABA) G4 :|
